X: 35934
T: Santa Tracker, The
R: hornpipe
M: 4/4
K: Dmajor
FDFA fedc|BG (3Bcd g2ed|cA (3AAA aAge|dcde fdAG|
FDFA fedc|BG (3Bcd g2ed|cA (3AAA aAge|(3ddd ce d2ag|
(3fgf ef dec2|(3ABB AF G2ba|(3gag fg (3eee de|cA (3BA^G A2ag|
(3fgf ef dec2|ABAF G2~G2|AAAA fece|(3ddd dc d4||

